flaticon/gastronomy/pot-1.svg

<svg xmlns="http://www.w3.org/2000/svg" width="32" height="32" viewBox="0 0 24 24">
    <path d="M 22.738281 11.578125 L 21.484375 11.578125 C 21.503906 11.335938 21.578125 11.101562 21.703125 10.890625 L 22.386719 9.738281 C 22.523438 9.515625 22.527344 9.230469 22.398438 9 C 22.3125 8.851562 22.171875 8.742188 22.015625 8.683594 C 22.007812 8.570312 21.980469 8.460938 21.917969 8.359375 L 21.863281 8.285156 C 21.371094 7.757812 20.136719 6.527344 19.367188 6.527344 L 14.910156 6.527344 C 14.707031 5.332031 13.671875 4.421875 12.421875 4.421875 L 11.15625 4.421875 C 9.910156 4.421875 8.871094 5.332031 8.667969 6.527344 L 4.632812 6.527344 C 3.863281 6.527344 2.628906 7.757812 2.136719 8.285156 L 2.082031 8.359375 C 2.023438 8.460938 1.992188 8.570312 1.984375 8.683594 C 1.828125 8.742188 1.6875 8.851562 1.601562 9.003906 C 1.472656 9.230469 1.476562 9.515625 1.613281 9.742188 L 2.296875 10.890625 C 2.421875 11.101562 2.496094 11.335938 2.515625 11.578125 L 1.261719 11.578125 C 0.566406 11.578125 0 12.144531 0 12.84375 C 0 13.539062 0.566406 14.105469 1.261719 14.105469 L 2.527344 14.105469 L 2.527344 16.96875 C 2.527344 16.992188 2.527344 17.011719 2.53125 17.035156 C 2.53125 17.042969 2.527344 17.046875 2.527344 17.050781 C 2.527344 17.0625 2.53125 17.070312 2.53125 17.082031 C 2.589844 18.46875 3.730469 19.578125 5.125 19.578125 L 18.875 19.578125 C 20.308594 19.578125 21.472656 18.40625 21.472656 16.96875 L 21.472656 14.105469 L 22.738281 14.105469 C 23.433594 14.105469 24 13.539062 24 12.84375 C 24 12.144531 23.433594 11.578125 22.738281 11.578125 Z M 11.15625 5.261719 L 12.421875 5.261719 C 13.203125 5.261719 13.863281 5.800781 14.050781 6.527344 L 9.527344 6.527344 C 9.714844 5.800781 10.375 5.261719 11.15625 5.261719 Z M 4.632812 7.367188 L 19.367188 7.367188 C 19.601562 7.371094 20.34375 7.9375 21.027344 8.632812 L 2.972656 8.632812 C 3.65625 7.9375 4.398438 7.371094 4.632812 7.367188 Z M 0.84375 12.84375 C 0.84375 12.609375 1.03125 12.421875 1.261719 12.421875 L 2.527344 12.421875 L 2.527344 13.261719 L 1.261719 13.261719 C 1.03125 13.261719 0.84375 13.074219 0.84375 12.84375 Z M 20.632812 16.96875 C 20.632812 17.941406 19.84375 18.738281 18.875 18.738281 L 5.125 18.738281 C 4.332031 18.738281 3.667969 18.203125 3.449219 17.472656 L 7.15625 17.472656 C 7.390625 17.472656 7.578125 17.285156 7.578125 17.050781 C 7.578125 16.820312 7.390625 16.632812 7.15625 16.632812 L 3.367188 16.632812 L 3.367188 15.789062 L 5.894531 15.789062 C 6.128906 15.789062 6.316406 15.601562 6.316406 15.367188 C 6.316406 15.136719 6.128906 14.949219 5.894531 14.949219 L 3.367188 14.949219 L 3.367188 14.105469 L 5.050781 14.105469 C 5.285156 14.105469 5.472656 13.917969 5.472656 13.683594 C 5.472656 13.453125 5.285156 13.261719 5.050781 13.261719 L 3.367188 13.261719 L 3.367188 11.578125 L 3.359375 11.578125 C 3.335938 11.183594 3.222656 10.800781 3.019531 10.460938 L 2.433594 9.472656 L 21.566406 9.472656 L 20.980469 10.460938 C 20.777344 10.800781 20.664062 11.183594 20.640625 11.578125 L 20.632812 11.578125 Z M 22.738281 13.261719 L 21.472656 13.261719 L 21.472656 12.421875 L 22.738281 12.421875 C 22.96875 12.421875 23.15625 12.609375 23.15625 12.84375 C 23.15625 13.074219 22.96875 13.261719 22.738281 13.261719 Z M 22.738281 13.261719"/>
</svg>

<svg xmlns="http://www.w3.org/2000/svg" width="32" height="32" viewBox="0 0 24 24">
    <path d="M22.738 11.578h-1.254c.02-.242.094-.476.22-.687l.683-1.153A.734.734 0 0 0 22.398 9a.742.742 0 0 0-.382-.316.696.696 0 0 0-.098-.325l-.055-.074c-.492-.527-1.726-1.758-2.496-1.758H14.91a2.527 2.527 0 0 0-2.488-2.105h-1.266a2.53 2.53 0 0 0-2.488 2.105H4.633c-.77 0-2.004 1.23-2.496 1.758l-.055.074a.745.745 0 0 0-.098.325.732.732 0 0 0-.382.32.734.734 0 0 0 .011.738l.684 1.149c.125.21.2.445.219.687H1.262a1.264 1.264 0 0 0 0 2.527h1.265v2.864c0 .023 0 .043.004.066 0 .008-.004.012-.004.016 0 .012.004.02.004.031a2.604 2.604 0 0 0 2.594 2.496h13.75a2.607 2.607 0 0 0 2.598-2.61v-2.863h1.265a1.264 1.264 0 0 0 0-2.527zM11.156 5.262h1.266c.781 0 1.441.539 1.629 1.265H9.527a1.688 1.688 0 0 1 1.63-1.265zM4.633 7.367h14.734c.235.004.977.57 1.66 1.266H2.973c.683-.695 1.425-1.262 1.66-1.266zm-3.79 5.477a.42.42 0 0 1 .419-.422h1.265v.84H1.262a.418.418 0 0 1-.418-.418zm19.79 4.125c0 .972-.79 1.77-1.758 1.77H5.125a1.757 1.757 0 0 1-1.676-1.266h3.707a.42.42 0 1 0 0-.84H3.367v-.844h2.528a.42.42 0 1 0 0-.84H3.367v-.844h1.684a.423.423 0 0 0 0-.844H3.367v-1.683H3.36a2.455 2.455 0 0 0-.34-1.117l-.585-.988h19.132l-.586.988c-.203.34-.316.723-.34 1.117h-.007zm2.105-3.707h-1.265v-.84h1.265a.42.42 0 0 1 0 .84zm0 0"/>
</svg>
